tourImg/btn-back.svg

<svg width="153" height="60" viewBox="0 0 153 60" fill="none" xmlns="http://www.w3.org/2000/svg">
<rect width="153" height="60" rx="30" fill="black"/>
<path d="M50.7097 37V23.9091H52.6848V29.598H59.2111V23.9091H61.1926V37H59.2111V31.2919H52.6848V37H50.7097ZM66.7729 37.2173C66.1507 37.2173 65.5882 37.1023 65.0854 36.8722C64.5826 36.6378 64.1841 36.299 63.8901 35.8558C63.6003 35.4126 63.4554 34.8693 63.4554 34.2259C63.4554 33.6719 63.562 33.2159 63.775 32.858C63.9881 32.5 64.2757 32.2166 64.638 32.0078C65.0002 31.799 65.405 31.6413 65.8525 31.5348C66.2999 31.4283 66.7559 31.3473 67.2203 31.2919C67.8084 31.2237 68.2857 31.1683 68.6522 31.1257C69.0186 31.0788 69.285 31.0043 69.4512 30.902C69.6174 30.7997 69.7005 30.6335 69.7005 30.4034V30.3587C69.7005 29.8004 69.5428 29.3679 69.2275 29.0611C68.9164 28.7543 68.4519 28.6009 67.834 28.6009C67.1905 28.6009 66.6834 28.7436 66.3127 29.0291C65.9462 29.3104 65.6926 29.6236 65.552 29.9688L63.7559 29.5597C63.9689 28.9631 64.28 28.4815 64.6891 28.1151C65.1025 27.7443 65.5776 27.4759 66.1145 27.3097C66.6515 27.1392 67.2161 27.054 67.8084 27.054C68.2005 27.054 68.6159 27.1009 69.0549 27.1946C69.498 27.2841 69.9114 27.4503 70.2949 27.6932C70.6827 27.9361 71.0002 28.2834 71.2473 28.7351C71.4945 29.1825 71.6181 29.7642 71.6181 30.4801V37H69.7516V35.6577H69.6749C69.5513 35.9048 69.3659 36.1477 69.1188 36.3864C68.8716 36.625 68.5542 36.8232 68.1664 36.9808C67.7786 37.1385 67.3141 37.2173 66.7729 37.2173ZM67.1884 35.6832C67.7168 35.6832 68.1685 35.5788 68.5435 35.37C68.9228 35.1612 69.2104 34.8885 69.4064 34.5518C69.6067 34.2109 69.7069 33.8466 69.7069 33.4588V32.1932C69.6387 32.2614 69.5066 32.3253 69.3105 32.3849C69.1188 32.4403 68.8993 32.4893 68.6522 32.532C68.405 32.5703 68.1642 32.6065 67.9299 32.6406C67.6955 32.6705 67.4995 32.696 67.3418 32.7173C66.9711 32.7642 66.6323 32.843 66.3255 32.9538C66.0229 33.0646 65.78 33.2244 65.5968 33.4332C65.4178 33.6378 65.3283 33.9105 65.3283 34.2514C65.3283 34.7244 65.503 35.0824 65.8525 35.3253C66.2019 35.5639 66.6472 35.6832 67.1884 35.6832ZM73.582 34.4048H75.538C75.5636 34.8054 75.7447 35.1143 76.0813 35.3317C76.4222 35.549 76.8633 35.6577 77.4045 35.6577C77.9542 35.6577 78.4229 35.5405 78.8107 35.3061C79.1985 35.0675 79.3924 34.6989 79.3924 34.2003C79.3924 33.902 79.3178 33.642 79.1687 33.4205C79.0238 33.1946 78.8171 33.0199 78.5487 32.8963C78.2844 32.7727 77.9712 32.7109 77.609 32.7109H76.011V31.2088H77.609C78.1502 31.2088 78.555 31.0852 78.8235 30.8381C79.092 30.5909 79.2262 30.282 79.2262 29.9112C79.2262 29.5107 79.0813 29.1889 78.7915 28.946C78.506 28.6989 78.1076 28.5753 77.5962 28.5753C77.0763 28.5753 76.6438 28.6925 76.2987 28.9268C75.9535 29.157 75.7724 29.4553 75.7553 29.8217H73.8249C73.8377 29.272 74.0039 28.7905 74.3235 28.3771C74.6474 27.9595 75.082 27.6357 75.6275 27.4055C76.1772 27.1712 76.8015 27.054 77.5004 27.054C78.229 27.054 78.8597 27.1712 79.3924 27.4055C79.9251 27.6399 80.3363 27.9638 80.6261 28.3771C80.9201 28.7905 81.0671 29.2656 81.0671 29.8026C81.0671 30.3437 80.9052 30.7869 80.5813 31.1321C80.2617 31.473 79.8441 31.718 79.3285 31.8672V31.9695C79.7077 31.995 80.0444 32.1101 80.3384 32.3146C80.6325 32.5192 80.8626 32.7898 81.0288 33.1264C81.195 33.4631 81.2781 33.8445 81.2781 34.2706C81.2781 34.8714 81.1119 35.3913 80.7795 35.8303C80.4513 36.2692 79.9954 36.608 79.4116 36.8466C78.832 37.081 78.1694 37.1982 77.4237 37.1982C76.6992 37.1982 76.0494 37.0852 75.4741 36.8594C74.9031 36.6293 74.4492 36.3054 74.1126 35.8878C73.7802 35.4702 73.6033 34.9759 73.582 34.4048ZM86.1088 37.2173C85.4867 37.2173 84.9242 37.1023 84.4213 36.8722C83.9185 36.6378 83.5201 36.299 83.226 35.8558C82.9363 35.4126 82.7914 34.8693 82.7914 34.2259C82.7914 33.6719 82.8979 33.2159 83.111 32.858C83.324 32.5 83.6117 32.2166 83.9739 32.0078C84.3361 31.799 84.7409 31.6413 85.1884 31.5348C85.6358 31.4283 86.0918 31.3473 86.5563 31.2919C87.1444 31.2237 87.6216 31.1683 87.9881 31.1257C88.3546 31.0788 88.6209 31.0043 88.7871 30.902C88.9533 30.7997 89.0364 30.6335 89.0364 30.4034V30.3587C89.0364 29.8004 88.8787 29.3679 88.5634 29.0611C88.2523 28.7543 87.7878 28.6009 87.1699 28.6009C86.5265 28.6009 86.0194 28.7436 85.6486 29.0291C85.2821 29.3104 85.0286 29.6236 84.888 29.9688L83.0918 29.5597C83.3049 28.9631 83.6159 28.4815 84.025 28.1151C84.4384 27.7443 84.9135 27.4759 85.4505 27.3097C85.9874 27.1392 86.552 27.054 87.1444 27.054C87.5364 27.054 87.9519 27.1009 88.3908 27.1946C88.834 27.2841 89.2473 27.4503 89.6309 27.6932C90.0186 27.9361 90.3361 28.2834 90.5833 28.7351C90.8304 29.1825 90.954 29.7642 90.954 30.4801V37H89.0875V35.6577H89.0108C88.8873 35.9048 88.7019 36.1477 88.4547 36.3864C88.2076 36.625 87.8901 36.8232 87.5023 36.9808C87.1145 37.1385 86.65 37.2173 86.1088 37.2173ZM86.5243 35.6832C87.0527 35.6832 87.5044 35.5788 87.8794 35.37C88.2587 35.1612 88.5463 34.8885 88.7424 34.5518C88.9426 34.2109 89.0428 33.8466 89.0428 33.4588V32.1932C88.9746 32.2614 88.8425 32.3253 88.6465 32.3849C88.4547 32.4403 88.2353 32.4893 87.9881 32.532C87.7409 32.5703 87.5002 32.6065 87.2658 32.6406C87.0314 32.6705 86.8354 32.696 86.6777 32.7173C86.307 32.7642 85.9682 32.843 85.6614 32.9538C85.3588 33.0646 85.1159 33.2244 84.9327 33.4332C84.7537 33.6378 84.6642 33.9105 84.6642 34.2514C84.6642 34.7244 84.839 35.0824 85.1884 35.3253C85.5378 35.5639 85.9831 35.6832 86.5243 35.6832ZM92.5408 39.8317V35.3445H93.3398C93.5444 35.157 93.717 34.9332 93.8576 34.6733C94.0025 34.4134 94.1239 34.1044 94.2219 33.7464C94.3242 33.3885 94.4094 32.9709 94.4776 32.4936C94.5458 32.0121 94.6055 31.4624 94.6566 30.8445L94.9634 27.1818H101.637V35.3445H103.145V39.8317H101.279V37H94.4329V39.8317H92.5408ZM95.3853 35.3445H99.7702V28.8182H96.6765L96.4719 30.8445C96.3739 31.8757 96.2504 32.7706 96.1012 33.5291C95.9521 34.2834 95.7134 34.8885 95.3853 35.3445Z" fill="white"/>
</svg>

<svg width="153" height="60" fill="none" xmlns="http://www.w3.org/2000/svg"><rect width="153" height="60" rx="30" fill="#000"/><path d="M50.71 37V23.91h1.975v5.688h6.526v-5.689h1.982V37H59.21v-5.708h-6.526V37H50.71Zm16.063.217a4.009 4.009 0 0 1-1.688-.345 2.843 2.843 0 0 1-1.195-1.016c-.29-.443-.435-.987-.435-1.63 0-.554.107-1.01.32-1.368.213-.358.5-.641.863-.85a4.505 4.505 0 0 1 1.215-.473c.447-.107.903-.188 1.367-.243l1.432-.166c.367-.047.633-.122.8-.224.165-.102.249-.268.249-.499v-.044c0-.559-.158-.991-.473-1.298-.312-.307-.776-.46-1.394-.46-.644 0-1.15.143-1.521.428-.367.281-.62.595-.761.94l-1.796-.41c.213-.596.524-1.078.933-1.444.414-.37.889-.64 1.426-.805a5.564 5.564 0 0 1 1.693-.256c.392 0 .808.047 1.247.14.443.09.856.256 1.24.5.388.242.705.59.952 1.041.248.448.371 1.03.371 1.745V37h-1.866v-1.342h-.077c-.124.247-.31.49-.556.728a2.954 2.954 0 0 1-.953.595c-.387.157-.852.236-1.393.236Zm.415-1.534c.529 0 .98-.104 1.355-.313.38-.209.667-.481.863-.818.2-.341.3-.705.3-1.093v-1.266c-.067.068-.2.132-.395.192a6.181 6.181 0 0 1-.659.147c-.247.038-.488.075-.722.109l-.588.076a4.74 4.74 0 0 0-1.016.237c-.303.11-.546.27-.73.48-.178.204-.268.477-.268.817 0 .473.175.831.525 1.074.349.239.794.358 1.335.358Zm6.394-1.278h1.956c.026.4.207.71.543.927.341.217.782.326 1.323.326.55 0 1.019-.117 1.407-.352.387-.238.581-.607.581-1.106 0-.298-.074-.558-.223-.78a1.42 1.42 0 0 0-.62-.524 2.2 2.2 0 0 0-.94-.185h-1.598v-1.502h1.598c.541 0 .946-.124 1.215-.37.268-.248.402-.557.402-.928 0-.4-.145-.722-.434-.965-.286-.247-.684-.37-1.196-.37-.52 0-.952.116-1.297.35-.346.231-.527.53-.544.896h-1.93a2.39 2.39 0 0 1 .498-1.445c.324-.418.759-.741 1.305-.971.55-.235 1.174-.352 1.872-.352.729 0 1.36.117 1.892.352.533.234.944.558 1.234.971.294.414.441.889.441 1.426 0 .54-.162.984-.486 1.33-.32.34-.737.585-1.252.734v.102c.379.026.715.141 1.01.346.293.204.524.475.69.811.166.337.25.718.25 1.145 0 .6-.167 1.12-.5 1.56-.328.438-.784.777-1.367 1.016-.58.234-1.243.351-1.988.351-.725 0-1.375-.113-1.95-.339-.57-.23-1.025-.554-1.361-.971a2.463 2.463 0 0 1-.531-1.483Zm12.527 2.812a4.01 4.01 0 0 1-1.688-.345 2.844 2.844 0 0 1-1.195-1.016c-.29-.443-.435-.987-.435-1.63 0-.554.107-1.01.32-1.368.213-.358.5-.641.863-.85a4.505 4.505 0 0 1 1.214-.473 12.08 12.08 0 0 1 1.368-.243l1.432-.166c.367-.047.633-.122.8-.224.165-.102.248-.268.248-.499v-.044c0-.559-.157-.991-.473-1.298-.31-.307-.775-.46-1.393-.46-.644 0-1.15.143-1.521.428-.367.281-.62.595-.761.94l-1.796-.41c.213-.596.524-1.078.933-1.444.413-.37.888-.64 1.425-.805a5.563 5.563 0 0 1 1.694-.256c.392 0 .808.047 1.247.14.443.09.856.256 1.24.5.388.242.705.59.952 1.041.247.448.371 1.03.371 1.745V37h-1.866v-1.342h-.077c-.124.247-.31.49-.556.728a2.953 2.953 0 0 1-.953.595c-.387.157-.852.236-1.393.236Zm.415-1.534c.529 0 .98-.104 1.355-.313.38-.209.667-.481.863-.818.2-.341.3-.705.3-1.093v-1.266c-.067.068-.2.132-.395.192a6.183 6.183 0 0 1-.659.147c-.247.038-.488.075-.722.109l-.588.076a4.74 4.74 0 0 0-1.017.237c-.302.11-.545.27-.728.48-.18.204-.269.477-.269.817 0 .473.175.831.524 1.074.35.239.795.358 1.336.358Zm6.017 4.149v-4.488h.799c.204-.187.377-.41.518-.67.144-.26.266-.57.364-.928.102-.358.187-.775.256-1.252.068-.482.128-1.032.179-1.65l.306-3.662h6.674v8.162h1.508v4.488h-1.866V37h-6.846v2.832H92.54Zm2.844-4.488h4.385v-6.526h-3.093l-.205 2.026a27.683 27.683 0 0 1-.37 2.685c-.15.754-.389 1.36-.717 1.815Z" fill="#fff"/></svg>
